art/dp/systems_sel/custom-collections.svg

<svg height="548.57141" viewBox="0 0 3840 548.5714" width="3840" xmlns="http://www.w3.org/2000/svg"><g stroke-width="4.21978"><path d="m42.197801 506.37361h42.197802v42.1978h253.186807v-42.1978h42.19781v-42.1978h42.1978v-84.39561-84.3956h-42.1978v-42.1978h42.1978v-84.39561-84.395602h-42.1978v-42.197802h-42.19781v-42.197802h-253.186807v42.197802h-42.197802v42.197802h-42.197802v84.395602 210.98901 84.39561h42.197802zm210.989009-210.98901h-42.1978v-42.1978h42.1978z" fill="#120f26"/><path d="m379.78022 379.7802h-126.59341v42.1978h-84.3956v-210.98901h84.3956v42.19781h126.59341v-84.39561h-42.19781v-42.1978h-253.186807v42.1978h-42.197802v295.38462h42.197802v42.1978h253.186807v-42.1978h42.19781z" fill="#666"/><path d="m379.78022 295.3846h-126.59341v42.1978h-84.3956v-210.98901h84.3956v42.1978h126.59341v-84.395602h-42.19781v-42.197802h-253.186807v42.197802h-42.197802v295.384612h42.197802v42.1978h253.186807v-42.1978h42.19781z" fill="#fff"/><path d="m464.17582 42.197826h-42.1978v42.197802h-42.19781v84.395602 210.98901 84.39561h42.19781v42.1978h42.1978v42.1978h253.18681v-42.1978h42.1978v-42.1978h42.1978v-84.39561-210.98901-84.395602h-42.1978v-42.197802h-42.1978v-42.197802h-253.18681z" fill="#120f26"/><path d="m717.36263 506.37365v-42.1978h42.1978v-295.38462h-42.1978v-42.1978h-253.18681v42.1978h-42.1978v295.38462h42.1978v42.1978zm-168.79121-84.39561v-210.98901h84.39561v210.98901z" fill="#666"/><path d="m717.36263 421.97804v-42.1978h42.1978v-295.384612h-42.1978v-42.197802h-253.18681v42.197802h-42.1978v295.384612h42.1978v42.1978zm-168.79121-84.3956v-210.98901h84.39561v210.98901z" fill="#fff"/><path d="m759.56045 126.59339v295.38461 84.39561h42.1978v42.1978h84.39561 42.1978 168.79124v-42.1978h42.1978v-84.39561-84.3956h-42.1978v-42.1978h-126.59344v-168.79121-84.395604h-42.1978v-42.197802h-126.59341v42.197802h-42.1978z" fill="#120f26"/><path d="m928.35166 421.978v-295.38461h-126.59341v379.78022h84.39561 42.1978 168.79124v-84.39561z" fill="#666"/><path d="m928.35166 337.5824v-295.384614h-126.59341v379.780214h84.39561 42.1978 168.79124v-84.3956z" fill="#fff"/><path d="m1139.3407 506.37361v42.1978h84.3956 42.1978 168.7912v-42.1978h42.1978v-84.39561-84.3956h-42.1978v-42.1978h-126.5934v-168.79121-84.395604h-42.1978v-42.197802h-126.5934v42.197802h-42.1978v84.395604 295.38461 84.39561z" fill="#120f26"/><path d="m1139.3407 506.37361h84.3956 42.1978 168.7912v-84.39561h-168.7912v-295.38461h-126.5934z" fill="#666"/><path d="m1139.3407 421.978h84.3956 42.1978 168.7912v-84.3956h-168.7912v-295.384614h-126.5934z" fill="#fff"/><path d="m1476.9231 506.37361v42.1978h84.3956 42.1978 168.7912v-42.1978h42.1978v-84.39561-84.3956h-42.1978v-42.1978-42.1978-42.19781h42.1978v-84.3956-84.395604h-42.1978v-42.197802h-168.7912-42.1978-84.3956v42.197802h-42.1978v84.395604 295.38461 84.39561z" fill="#120f26"/><path d="m1603.5165 506.37361h168.7912v-84.39561h-168.7912v-42.1978h126.5934v-84.3956h-126.5934v-84.39561h168.7912v-84.3956h-168.7912-42.1978-84.3956v379.78022h84.3956z" fill="#666"/><path d="m1603.5165 421.978h168.7912v-84.3956h-168.7912v-42.1978h126.5934v-84.39561h-126.5934v-84.3956h168.7912v-84.395604h-168.7912-42.1978-84.3956v379.780214h84.3956z" fill="#fff"/><path d="m1814.5055 506.37361h42.1978v42.1978h253.1868v-42.1978h42.1978v-42.1978h42.1978v-84.39561-84.3956h-42.1978v-42.1978h42.1978v-84.39561-84.395602h-42.1978v-42.197802h-42.1978v-42.197802h-253.1868v42.197802h-42.1978v42.197802h-42.1978v84.395602 210.98901 84.39561h42.1978zm210.989-210.98901h-42.1978v-42.1978h42.1978z" fill="#120f26"/><path d="m2109.8901 126.59339h-253.1868v42.1978h-42.1978v295.38462h42.1978v42.1978h253.1868v-42.1978h42.1978v-84.39561h-126.5934v42.1978h-84.3956v-210.98901h84.3956v42.19781h126.5934v-84.39561h-42.1978z" fill="#666"/><path d="m2109.8901 42.197786h-253.1868v42.197802h-42.1978v295.384612h42.1978v42.1978h253.1868v-42.1978h42.1978v-84.3956h-126.5934v42.1978h-84.3956v-210.98901h84.3956v42.1978h126.5934v-84.395602h-42.1978z" fill="#fff"/><path d="m2236.4835 421.97804v84.39561h42.1978v42.1978h126.5934v-42.1978h42.1978v-84.39561-168.7912h42.1978v-42.19781h42.1978v-84.3956-84.395604h-42.1978v-42.197802h-295.3846v42.197802h-42.1978v84.395604 84.3956h42.1978v42.19781h42.1978z" fill="#120f26"/><path d="m2405.2747 210.98903h84.3956v-84.3956h-295.3846v84.3956h84.3956v295.38462h126.5934z" fill="#666"/><path d="m2405.2747 126.59343h84.3956v-84.395604h-295.3846v84.395604h84.3956v295.38461h126.5934z" fill="#fff"/><path d="m2700.6593 126.59339v-84.395604h-42.1978v-42.197802h-126.5934v42.197802h-42.1978v84.395604 295.38461 84.39561h42.1978v42.1978h126.5934v-42.1978h42.1978v-84.39561z" fill="#120f26"/><path d="m2531.8681 126.59339h126.5934v379.78022h-126.5934z" fill="#666"/><path d="m2531.8681 42.197786h126.5934v379.780214h-126.5934z" fill="#fff"/><path d="m2996.044 42.197826v-42.197802h-253.1868v42.197802h-42.1978v42.197802h-42.1978v84.395602 210.98901 84.39561h42.1978v42.1978h42.1978v42.1978h253.1868v-42.1978h42.1978v-42.1978h42.1978v-84.39561-210.98901-84.395602h-42.1978v-42.197802z" fill="#120f26"/><path d="m2996.044 506.37365v-42.1978h42.1978v-295.38462h-42.1978v-42.1978h-253.1868v42.1978h-42.1978v295.38462h42.1978v42.1978zm-168.7912-84.39561v-210.98901h84.3956v210.98901z" fill="#666"/><path d="m2996.044 421.97804v-42.1978h42.1978v-295.384612h-42.1978v-42.197802h-253.1868v42.197802h-42.1978v295.384612h42.1978v42.1978zm-168.7912-84.3956v-210.98901h84.3956v210.98901z" fill="#fff"/><path d="m3038.2417 506.37361h42.1978v42.1978h126.5934v-42.1978h42.1978 42.1978v42.1978h126.5934v-42.1978h42.1978v-84.39561-295.38461-84.395604h-42.1978v-42.197802h-126.5934v42.197802h-42.1978-42.1978v-42.197802h-126.5934v42.197802h-42.1978v84.395604 295.38461z" fill="#120f26"/><path d="m3418.0219 506.37361v-379.78022h-126.5934v168.79121h-42.1978v-84.39561h-42.1978v-84.3956h-126.5934v379.78022h126.5934v-126.59341h42.1978v84.39561h42.1978v42.1978z" fill="#666"/><path d="m3418.0219 421.978v-379.780214h-126.5934v168.791204h-42.1978v-84.3956h-42.1978v-84.395604h-126.5934v379.780214h126.5934v-126.5934h42.1978v84.3956h42.1978v42.1978z" fill="#fff"/><path d="m3755.6044 548.57145v-42.1978h42.1978v-42.1978h42.1978v-84.39561-42.1978-84.3956-84.39561-84.395602h-42.1978v-42.197802h-42.1978v-42.197802h-253.1868v42.197802h-42.1978v42.197802h-42.1978v84.395602 42.1978 84.39561 84.3956 84.39561h42.1978v42.1978h42.1978v42.1978z" fill="#120f26"/><path d="m3586.8132 337.58244v42.1978h84.3956v42.1978h-84.3956v-42.1978h-126.5934v84.39561h42.1978v42.1978h253.1868v-42.1978h42.1978v-126.59341h-42.1978v-42.1978h-84.3956v-42.1978h-84.3956v-42.19781h84.3956v42.19781h126.5934v-84.39561h-42.1978v-42.1978h-253.1868v42.1978h-42.1978v126.59341h42.1978v42.1978z" fill="#666"/><path d="m3586.8132 253.18684v42.1978h84.3956v42.1978h-84.3956v-42.1978h-126.5934v84.3956h42.1978v42.1978h253.1868v-42.1978h42.1978v-126.5934h-42.1978v-42.19781h-84.3956v-42.1978h-84.3956v-42.1978h84.3956v42.1978h126.5934v-84.395602h-42.1978v-42.197802h-253.1868v42.197802h-42.1978v126.593402h42.1978v42.19781z" fill="#fff"/></g></svg>

<?xml version="1.0" encoding="UTF-8" standalone="no"?>
<svg
   height="548"
   viewBox="0 0 3840 547.99999"
   width="3840"
   version="1.1"
   id="svg33"
   sodipodi:docname="custom-collections.svg"
   inkscape:version="1.3.2 (091e20e, 2023-11-25)"
   xmlns:inkscape="http://www.inkscape.org/namespaces/inkscape"
   xmlns:sodipodi="http://sodipodi.sourceforge.net/DTD/sodipodi-0.dtd"
   xmlns="http://www.w3.org/2000/svg"
   xmlns:svg="http://www.w3.org/2000/svg">
  <defs
     id="defs33" />
  <sodipodi:namedview
     id="namedview33"
     pagecolor="#ffffff"
     bordercolor="#000000"
     borderopacity="0.25"
     inkscape:showpageshadow="2"
     inkscape:pageopacity="0.0"
     inkscape:pagecheckerboard="0"
     inkscape:deskcolor="#d1d1d1"
     inkscape:zoom="0.24557292"
     inkscape:cx="1922.0361"
     inkscape:cy="272.83139"
     inkscape:window-width="1312"
     inkscape:window-height="449"
     inkscape:window-x="0"
     inkscape:window-y="23"
     inkscape:window-maximized="0"
     inkscape:current-layer="svg33" />
  <g
     id="g34"
     transform="matrix(1,0,0,0.99895827,1e-6,1.5983332e-5)">
    <g
       stroke-width="4.21978"
       id="g33">
      <path
         d="m 42.197801,506.37361 h 42.197802 v 42.1978 H 337.58241 v -42.1978 h 42.19781 v -42.1978 h 42.1978 V 379.7802 295.3846 h -42.1978 v -42.1978 h 42.1978 V 168.79119 84.395588 h -42.1978 V 42.197786 H 337.58241 V -1.6e-5 H 84.395603 V 42.197786 H 42.197801 V 84.395588 H -1e-6 V 168.79119 379.7802 464.17581 H 42.197801 Z M 253.18681,295.3846 h -42.1978 v -42.1978 h 42.1978 z"
         fill="#120f26"
         id="path1" />
      <path
         d="M 379.78022,379.7802 H 253.18681 v 42.1978 h -84.3956 V 210.98899 h 84.3956 v 42.19781 h 126.59341 v -84.39561 h -42.19781 v -42.1978 H 84.395603 v 42.1978 H 42.197801 v 295.38462 h 42.197802 v 42.1978 H 337.58241 v -42.1978 h 42.19781 z"
         fill="#666666"
         id="path2" />
      <path
         d="M 379.78022,295.3846 H 253.18681 v 42.1978 h -84.3956 V 126.59339 h 84.3956 v 42.1978 H 379.78022 V 84.395588 H 337.58241 V 42.197786 H 84.395603 V 84.395588 H 42.197801 V 379.7802 H 84.395603 V 421.978 H 337.58241 v -42.1978 h 42.19781 z"
         fill="#ffffff"
         id="path3" />
      <path
         d="m 464.17582,42.197826 h -42.1978 v 42.197802 h -42.19781 v 84.395602 210.98901 84.39561 h 42.19781 v 42.1978 h 42.1978 v 42.1978 h 253.18681 v -42.1978 h 42.1978 v -42.1978 h 42.1978 V 379.78024 168.79123 84.395628 h -42.1978 V 42.197826 h -42.1978 V 2.4e-5 H 464.17582 Z"
         fill="#120f26"
         id="path4" />
      <path
         d="m 717.36263,506.37365 v -42.1978 h 42.1978 V 168.79123 h -42.1978 v -42.1978 H 464.17582 v 42.1978 h -42.1978 v 295.38462 h 42.1978 v 42.1978 z M 548.57142,421.97804 V 210.98903 h 84.39561 v 210.98901 z"
         fill="#666666"
         id="path5" />
      <path
         d="m 717.36263,421.97804 v -42.1978 h 42.1978 V 84.395628 h -42.1978 V 42.197826 H 464.17582 v 42.197802 h -42.1978 V 379.78024 h 42.1978 v 42.1978 z M 548.57142,337.58244 V 126.59343 h 84.39561 v 210.98901 z"
         fill="#ffffff"
         id="path6" />
      <path
         d="M 759.56045,126.59339 V 421.978 506.37361 h 42.1978 v 42.1978 h 84.39561 42.1978 168.79124 v -42.1978 h 42.1978 V 421.978 337.5824 h -42.1978 V 295.3846 H 970.54946 V 126.59339 42.197786 h -42.1978 V -1.6e-5 H 801.75825 v 42.197802 h -42.1978 z"
         fill="#120f26"
         id="path7" />
      <path
         d="M 928.35166,421.978 V 126.59339 H 801.75825 v 379.78022 h 84.39561 42.1978 168.79124 V 421.978 Z"
         fill="#666666"
         id="path8" />
      <path
         d="M 928.35166,337.5824 V 42.197786 H 801.75825 V 421.978 h 84.39561 42.1978 168.79124 v -84.3956 z"
         fill="#ffffff"
         id="path9" />
      <path
         d="m 1139.3407,506.37361 v 42.1978 h 84.3956 42.1978 168.7912 v -42.1978 h 42.1978 V 421.978 337.5824 h -42.1978 V 295.3846 H 1308.1319 V 126.59339 42.197786 h -42.1978 V -1.6e-5 h -126.5934 v 42.197802 h -42.1978 V 126.59339 421.978 506.37361 Z"
         fill="#120f26"
         id="path10" />
      <path
         d="m 1139.3407,506.37361 h 84.3956 42.1978 168.7912 V 421.978 H 1265.9341 V 126.59339 h -126.5934 z"
         fill="#666666"
         id="path11" />
      <path
         d="m 1139.3407,421.978 h 84.3956 42.1978 168.7912 V 337.5824 H 1265.9341 V 42.197786 h -126.5934 z"
         fill="#ffffff"
         id="path12" />
      <path
         d="m 1476.9231,506.37361 v 42.1978 h 84.3956 42.1978 168.7912 v -42.1978 h 42.1978 V 421.978 337.5824 h -42.1978 v -42.1978 -42.1978 -42.19781 h 42.1978 v -84.3956 -84.395604 h -42.1978 V -1.6e-5 h -168.7912 -42.1978 -84.3956 v 42.197802 h -42.1978 V 126.59339 421.978 506.37361 Z"
         fill="#120f26"
         id="path13" />
      <path
         d="m 1603.5165,506.37361 h 168.7912 V 421.978 h -168.7912 v -42.1978 h 126.5934 v -84.3956 h -126.5934 v -84.39561 h 168.7912 v -84.3956 h -168.7912 -42.1978 -84.3956 v 379.78022 h 84.3956 z"
         fill="#666666"
         id="path14" />
      <path
         d="m 1603.5165,421.978 h 168.7912 v -84.3956 h -168.7912 v -42.1978 h 126.5934 v -84.39561 h -126.5934 v -84.3956 h 168.7912 V 42.197786 h -168.7912 -42.1978 -84.3956 V 421.978 h 84.3956 z"
         fill="#ffffff"
         id="path15" />
      <path
         d="m 1814.5055,506.37361 h 42.1978 v 42.1978 h 253.1868 v -42.1978 h 42.1978 v -42.1978 h 42.1978 V 379.7802 295.3846 h -42.1978 v -42.1978 h 42.1978 V 168.79119 84.395588 h -42.1978 V 42.197786 h -42.1978 V -1.6e-5 h -253.1868 v 42.197802 h -42.1978 v 42.197802 h -42.1978 v 84.395602 210.98901 84.39561 h 42.1978 z m 210.989,-210.98901 h -42.1978 v -42.1978 h 42.1978 z"
         fill="#120f26"
         id="path16" />
      <path
         d="m 2109.8901,126.59339 h -253.1868 v 42.1978 h -42.1978 v 295.38462 h 42.1978 v 42.1978 h 253.1868 v -42.1978 h 42.1978 V 379.7802 h -126.5934 v 42.1978 h -84.3956 V 210.98899 h 84.3956 v 42.19781 h 126.5934 v -84.39561 h -42.1978 z"
         fill="#666666"
         id="path17" />
      <path
         d="m 2109.8901,42.197786 h -253.1868 v 42.197802 h -42.1978 V 379.7802 h 42.1978 v 42.1978 h 253.1868 v -42.1978 h 42.1978 v -84.3956 h -126.5934 v 42.1978 h -84.3956 V 126.59339 h 84.3956 v 42.1978 h 126.5934 V 84.395588 h -42.1978 z"
         fill="#ffffff"
         id="path18" />
      <path
         d="m 2236.4835,421.97804 v 84.39561 h 42.1978 v 42.1978 h 126.5934 v -42.1978 h 42.1978 v -84.39561 -168.7912 h 42.1978 v -42.19781 h 42.1978 v -84.3956 -84.395604 h -42.1978 V 2.4e-5 h -295.3846 v 42.197802 h -42.1978 v 84.395604 84.3956 h 42.1978 v 42.19781 h 42.1978 z"
         fill="#120f26"
         id="path19" />
      <path
         d="m 2405.2747,210.98903 h 84.3956 v -84.3956 h -295.3846 v 84.3956 h 84.3956 v 295.38462 h 126.5934 z"
         fill="#666666"
         id="path20" />
      <path
         d="m 2405.2747,126.59343 h 84.3956 V 42.197826 h -295.3846 v 84.395604 h 84.3956 v 295.38461 h 126.5934 z"
         fill="#ffffff"
         id="path21" />
      <path
         d="M 2700.6593,126.59339 V 42.197786 h -42.1978 V -1.6e-5 h -126.5934 v 42.197802 h -42.1978 V 126.59339 421.978 506.37361 h 42.1978 v 42.1978 h 126.5934 v -42.1978 h 42.1978 V 421.978 Z"
         fill="#120f26"
         id="path22" />
      <path
         d="m 2531.8681,126.59339 h 126.5934 v 379.78022 h -126.5934 z"
         fill="#666666"
         id="path23" />
      <path
         d="m 2531.8681,42.197786 h 126.5934 V 421.978 h -126.5934 z"
         fill="#ffffff"
         id="path24" />
      <path
         d="M 2996.044,42.197826 V 2.4e-5 h -253.1868 v 42.197802 h -42.1978 v 42.197802 h -42.1978 v 84.395602 210.98901 84.39561 h 42.1978 v 42.1978 h 42.1978 v 42.1978 h 253.1868 v -42.1978 h 42.1978 v -42.1978 h 42.1978 V 379.78024 168.79123 84.395628 h -42.1978 V 42.197826 Z"
         fill="#120f26"
         id="path25" />
      <path
         d="m 2996.044,506.37365 v -42.1978 h 42.1978 V 168.79123 h -42.1978 v -42.1978 h -253.1868 v 42.1978 h -42.1978 v 295.38462 h 42.1978 v 42.1978 z M 2827.2528,421.97804 V 210.98903 h 84.3956 v 210.98901 z"
         fill="#666666"
         id="path26" />
      <path
         d="m 2996.044,421.97804 v -42.1978 h 42.1978 V 84.395628 H 2996.044 V 42.197826 h -253.1868 v 42.197802 h -42.1978 V 379.78024 h 42.1978 v 42.1978 z m -168.7912,-84.3956 V 126.59343 h 84.3956 v 210.98901 z"
         fill="#ffffff"
         id="path27" />
      <path
         d="m 3038.2417,506.37361 h 42.1978 v 42.1978 h 126.5934 v -42.1978 h 42.1978 42.1978 v 42.1978 h 126.5934 v -42.1978 h 42.1978 V 421.978 126.59339 42.197786 h -42.1978 V -1.6e-5 h -126.5934 v 42.197802 h -42.1978 -42.1978 V -1.6e-5 h -126.5934 v 42.197802 h -42.1978 V 126.59339 421.978 Z"
         fill="#120f26"
         id="path28" />
      <path
         d="M 3418.0219,506.37361 V 126.59339 H 3291.4285 V 295.3846 h -42.1978 v -84.39561 h -42.1978 v -84.3956 h -126.5934 v 379.78022 h 126.5934 V 379.7802 h 42.1978 v 84.39561 h 42.1978 v 42.1978 z"
         fill="#666666"
         id="path29" />
      <path
         d="M 3418.0219,421.978 V 42.197786 H 3291.4285 V 210.98899 h -42.1978 v -84.3956 h -42.1978 V 42.197786 H 3080.4395 V 421.978 h 126.5934 V 295.3846 h 42.1978 v 84.3956 h 42.1978 v 42.1978 z"
         fill="#ffffff"
         id="path30" />
      <path
         d="m 3755.6044,548.57145 v -42.1978 h 42.1978 v -42.1978 H 3840 v -84.39561 -42.1978 -84.3956 -84.39561 -84.395602 h -42.1978 V 42.197826 h -42.1978 V 2.4e-5 h -253.1868 v 42.197802 h -42.1978 v 42.197802 h -42.1978 v 84.395602 42.1978 84.39561 84.3956 84.39561 h 42.1978 v 42.1978 h 42.1978 v 42.1978 z"
         fill="#120f26"
         id="path31" />
      <path
         d="m 3586.8132,337.58244 v 42.1978 h 84.3956 v 42.1978 h -84.3956 v -42.1978 h -126.5934 v 84.39561 h 42.1978 v 42.1978 h 253.1868 v -42.1978 h 42.1978 V 337.58244 h -42.1978 v -42.1978 h -84.3956 v -42.1978 h -84.3956 v -42.19781 h 84.3956 v 42.19781 h 126.5934 v -84.39561 h -42.1978 v -42.1978 h -253.1868 v 42.1978 h -42.1978 v 126.59341 h 42.1978 v 42.1978 z"
         fill="#666666"
         id="path32" />
      <path
         d="m 3586.8132,253.18684 v 42.1978 h 84.3956 v 42.1978 h -84.3956 v -42.1978 h -126.5934 v 84.3956 h 42.1978 v 42.1978 h 253.1868 v -42.1978 h 42.1978 v -126.5934 h -42.1978 v -42.19781 h -84.3956 v -42.1978 h -84.3956 v -42.1978 h 84.3956 v 42.1978 h 126.5934 V 84.395628 h -42.1978 V 42.197826 h -253.1868 v 42.197802 h -42.1978 V 210.98903 h 42.1978 v 42.19781 z"
         fill="#ffffff"
         id="path33" />
    </g>
  </g>
</svg>
